#include "stdosl.h"

surface
leftWall
    [[ string help = "Lambertian diffuse material" ]]
(
    float Kd = 1
        [[  string help = "Diffuse scaling",
            float min = 0, float max = 1 ]],
    color Cs = color(0.63, 0.065, 0.05)
        [[  string help = "Base color",
            float min = 0, float max = 1 ]]
  )
{
    Ci = Kd * Cs * diffuse (N);
}