#include "stdosl.h"

surface
shortBox
    [[ string help = "Lambertian diffuse material" ]]
(
    float Kd = 1
        [[  string help = "Diffuse scaling",
            float min = 0, float max = 1 ]],
    color Cs = color(0.725, 0.71, 0.68)
        [[  string help = "Base color",
            float min = 0, float max = 1 ]]
  )
{
    Ci = Kd * Cs * diffuse (N);
}